X: 70
T:Schottische d'Arce
M:4/4
L:1/8
Q:140
C:Dave Praties
R:Schottische
N:http://www.lesession.co.uk
Z:Steve Mansfield 1998-2001
K:Eb
gf |: e2 c2 cdec | d2 c2 c4 | e3 f g3 a | gagf g2 gf | 
e2 c2 cdec | d2 c2 c4 | cdec B2 GB |1 c6 gf :|2 c8 |:
g2 c2 g2 c2 | gf^ed c2 de | f2 B2 f2 B2 | f^edc B4 | 
g2 c2 g2 c2 | gf^ed c2 de | f2 d2 B2 d2 | c8 :|

